; G-Code generated by Simplify3D(R) Version 4.0.1
; Oct 9, 2018 at 8:34:06 AM
; Settings Summary
;   processName,Process1
;   applyToModels,bookmark
;   profileName,Anet A8-CommunauteFrancaise (modified)
;   profileVersion,2018-08-31 18:45:08
;   baseProfile,
;   printMaterial,ABS
;   printQuality,High
;   printExtruders,
;   extruderName,Primary Extruder
;   extruderToolheadNumber,0
;   extruderDiameter,0.4
;   extruderAutoWidth,0
;   extruderWidth,0.4
;   extrusionMultiplier,1
;   extruderUseRetract,1
;   extruderRetractionDistance,2
;   extruderExtraRestartDistance,-0.2
;   extruderRetractionZLift,0.2
;   extruderRetractionSpeed,3600
;   extruderUseCoasting,0
;   extruderCoastingDistance,0.2
;   extruderUseWipe,0
;   extruderWipeDistance,5
;   primaryExtruder,0
;   layerHeight,0.12
;   topSolidLayers,4
;   bottomSolidLayers,4
;   perimeterOutlines,4
;   printPerimetersInsideOut,1
;   startPointOption,2
;   startPointOriginX,0
;   startPointOriginY,500
;   sequentialIslands,0
;   spiralVaseMode,0
;   firstLayerHeightPercentage,100
;   firstLayerWidthPercentage,100
;   firstLayerUnderspeed,0.5
;   useRaft,0
;   raftExtruder,0
;   raftTopLayers,3
;   raftBaseLayers,2
;   raftOffset,3
;   raftSeparationDistance,0.14
;   raftTopInfill,100
;   aboveRaftSpeedMultiplier,0.3
;   useSkirt,1
;   skirtExtruder,0
;   skirtLayers,2
;   skirtOutlines,1
;   skirtOffset,2
;   usePrimePillar,0
;   primePillarExtruder,999
;   primePillarWidth,12
;   primePillarLocation,7
;   primePillarSpeedMultiplier,1
;   useOozeShield,0
;   oozeShieldExtruder,999
;   oozeShieldOffset,2
;   oozeShieldOutlines,1
;   oozeShieldSidewallShape,1
;   oozeShieldSidewallAngle,30
;   oozeShieldSpeedMultiplier,1
;   infillExtruder,0
;   internalInfillPattern,Rectilinear
;   externalInfillPattern,Rectilinear
;   infillPercentage,35
;   outlineOverlapPercentage,25
;   infillExtrusionWidthPercentage,100
;   minInfillLength,2
;   infillLayerInterval,1
;   internalInfillAngles,90,0
;   overlapInternalInfillAngles,0
;   externalInfillAngles,90,0
;   generateSupport,0
;   supportExtruder,0
;   supportInfillPercentage,40
;   supportExtraInflation,0
;   supportBaseLayers,0
;   denseSupportExtruder,0
;   denseSupportLayers,0
;   denseSupportInfillPercentage,60
;   supportLayerInterval,1
;   supportHorizontalPartOffset,0.3
;   supportUpperSeparationLayers,1
;   supportLowerSeparationLayers,1
;   supportType,0
;   supportGridSpacing,3
;   maxOverhangAngle,60
;   supportAngles,0
;   temperatureName,Primary Extruder,Heated Bed
;   temperatureNumber,0,0
;   temperatureSetpointCount,1,1
;   temperatureSetpointLayers,1,1
;   temperatureSetpointTemperatures,230,90
;   temperatureStabilizeAtStartup,1,1
;   temperatureHeatedBed,0,1
;   temperatureRelayBetweenLayers,0,0
;   temperatureRelayBetweenLoops,0,0
;   fanLayers,1
;   fanSpeeds,0
;   blipFanToFullPower,0
;   adjustSpeedForCooling,1
;   minSpeedLayerTime,15
;   minCoolingSpeedSlowdown,20
;   increaseFanForCooling,0
;   minFanLayerTime,45
;   maxCoolingFanSpeed,100
;   increaseFanForBridging,0
;   bridgingFanSpeed,100
;   use5D,1
;   relativeEdistances,0
;   allowEaxisZeroing,1
;   independentExtruderAxes,0
;   includeM10123,0
;   stickySupport,1
;   applyToolheadOffsets,0
;   gcodeXoffset,0
;   gcodeYoffset,0
;   gcodeZoffset,0
;   overrideMachineDefinition,1
;   machineTypeOverride,0
;   strokeXoverride,220
;   strokeYoverride,220
;   strokeZoverride,240
;   originOffsetXoverride,0
;   originOffsetYoverride,0
;   originOffsetZoverride,0
;   homeXdirOverride,-1
;   homeYdirOverride,-1
;   homeZdirOverride,-1
;   flipXoverride,1
;   flipYoverride,-1
;   flipZoverride,1
;   toolheadOffsets,0,0|0,0|0,0|0,0|0,0|0,0
;   overrideFirmwareConfiguration,1
;   firmwareTypeOverride,RepRap (Marlin/Repetier/Sprinter)
;   GPXconfigOverride,r2
;   baudRateOverride,115200
;   overridePrinterModels,1
;   printerModelsOverride
;   startingGcode,G28 ; home all axes,;G29,G1 X0 Y10 Z0.2 F3000 ; get ready to prime,G92 E0 ; reset extrusion distance,G1 X90 E20 Z-0.60 F600 ; prime nozzle,M117 Impression en cours  !!
;   layerChangeGcode,
;   retractionGcode,
;   toolChangeGcode,
;   endingGcode,M104 S0 ; turn off extruder,M140 S0 ; turn off bed,G1 X0 Y200 F1000 ; prepare for part removal,M84 ; disable motors,M117 c'est fini !!
;   exportFileFormat,gcode
;   celebration,0
;   celebrationSong,Star Wars
;   postProcessing,|;gcode:||; Use Simplify3D Gcode comments to display info for each layer||;{REPLACE "; layer" "M117 Layer"} ; Replace Simplify3D layer comments with display commands|;{REPLACE " Z = " " Z="} ; Delete spaces for more display space||; For filament change at the beginning of a particular layer:||; {REPLACE "\nM117 Layer <#>, Z=" "\nM600\nM117 Layer <#>, Z="}||; Forward toolpath file to Octoprint when saved:|;curl -k -H "X-Api-Key:95CF4E9979984CF1ACDD88DF2F202262" -F "select=true" -F "print=true" -F "file=@[output_filepath]" "http://192.168.1.126/api/files/local"
;   defaultSpeed,2400
;   outlineUnderspeed,0.5
;   solidInfillUnderspeed,0.8
;   supportUnderspeed,0.8
;   rapidXYspeed,3000
;   rapidZspeed,1002
;   minBridgingArea,50
;   bridgingExtraInflation,0
;   bridgingExtrusionMultiplier,1
;   bridgingSpeedMultiplier,1
;   useFixedBridgingAngle,0
;   fixedBridgingAngle,0
;   applyBridgingToPerimeters,0
;   filamentDiameters,1.75|1.75|1.75|1.75|1.75|1.75
;   filamentPricesPerKg,16|46|46|46|46|46
;   filamentDensities,1.25|1.25|1.25|1.25|1.25|1.25
;   useMinPrintHeight,0
;   minPrintHeight,0
;   useMaxPrintHeight,0
;   maxPrintHeight,0
;   useDiaphragm,0
;   diaphragmLayerInterval,20
;   robustSlicing,1
;   mergeAllIntoSolid,0
;   onlyRetractWhenCrossingOutline,1
;   retractBetweenLayers,1
;   useRetractionMinTravel,0
;   retractionMinTravel,3
;   retractWhileWiping,0
;   onlyWipeOutlines,1
;   avoidCrossingOutline,0
;   maxMovementDetourFactor,3
;   toolChangeRetractionDistance,12
;   toolChangeExtraRestartDistance,-0.5
;   toolChangeRetractionSpeed,600
;   externalThinWallType,0
;   internalThinWallType,2
;   thinWallAllowedOverlapPercentage,10
;   singleExtrusionMinLength,1
;   singleExtrusionMinPrintingWidthPercentage,50
;   singleExtrusionMaxPrintingWidthPercentage,200
;   singleExtrusionEndpointExtension,0.2
;   horizontalSizeCompensation,0
G90
M82
M106 S0
M140 S90
M190 S90
M104 S230 T0
M109 S230 T0
G28 ; home all axes
;G29
G1 X0 Y10 Z0.2 F3000 ; get ready to prime
G92 E0 ; reset extrusion distance
G1 X90 E20 Z-0.60 F600 ; prime nozzle
M117 Impression en cours  !!
G92 E0
G1 E-2.0000 F3600
G1 Z0.320 F1002
; process Process1
; layer 1, Z = 0.120
T0
; tool H0.120 W0.400
; skirt
G1 X95.470 Y45.240 F3000
G1 Z0.120 F1002
G1 E-0.2000 F1080
G92 E0
G1 X96.074 Y43.780 E0.0315 F1200
G1 X96.080 Y43.768 E0.0318
G1 X96.218 Y43.530 E0.0373
G1 X96.225 Y43.519 E0.0376
G1 X97.187 Y42.265 E0.0691
G1 X97.196 Y42.255 E0.0694
G1 X97.391 Y42.060 E0.0749
G1 X97.400 Y42.052 E0.0751
G1 X98.654 Y41.090 E0.1067
G1 X98.665 Y41.082 E0.1069
G1 X98.904 Y40.945 E0.1124
G1 X98.915 Y40.939 E0.1127
G1 X100.376 Y40.334 E0.1442
G1 X100.388 Y40.330 E0.1445
G1 X100.654 Y40.259 E0.1500
G1 X100.667 Y40.256 E0.1502
G1 X102.165 Y40.059 E0.1804
G1 X102.172 Y40.058 E0.1805
G1 X102.309 Y40.049 E0.1833
G1 X102.316 Y40.049 E0.1834
G1 X117.453 Y40.049 E0.4855
G1 X117.460 Y40.049 E0.4856
G1 X117.597 Y40.058 E0.4884
G1 X117.603 Y40.059 E0.4885
G1 X119.102 Y40.256 E0.5187
G1 X119.115 Y40.259 E0.5189
G1 X119.381 Y40.330 E0.5244
G1 X119.393 Y40.334 E0.5247
G1 X120.854 Y40.939 E0.5562
G1 X120.865 Y40.945 E0.5565
G1 X121.104 Y41.082 E0.5620
G1 X121.115 Y41.090 E0.5622
G1 X122.368 Y42.052 E0.5938
G1 X122.378 Y42.060 E0.5940
G1 X122.573 Y42.255 E0.5995
G1 X122.582 Y42.265 E0.5998
G1 X123.544 Y43.519 E0.6313
G1 X123.551 Y43.530 E0.6316
G1 X123.689 Y43.768 E0.6371
G1 X123.694 Y43.780 E0.6373
G1 X124.299 Y45.240 E0.6689
G1 X124.304 Y45.252 E0.6691
G1 X124.375 Y45.518 E0.6746
G1 X124.377 Y45.531 E0.6749
G1 X124.575 Y47.030 E0.7051
G1 X124.575 Y47.036 E0.7052
G1 X124.584 Y47.174 E0.7079
G1 X124.584 Y47.180 E0.7081
G1 X124.584 Y125.181 E2.2647
G1 X124.894 Y124.803 E2.2744
G1 X124.900 Y124.797 E2.2746
G1 X125.020 Y124.673 E2.2780
G1 X125.026 Y124.667 E2.2782
G1 X126.097 Y123.728 E2.3066
G1 X126.103 Y123.723 E2.3068
G1 X126.241 Y123.620 E2.3102
G1 X126.248 Y123.615 E2.3104
G1 X127.455 Y122.865 E2.3387
G1 X127.462 Y122.861 E2.3389
G1 X127.618 Y122.781 E2.3424
G1 X127.625 Y122.778 E2.3426
G1 X128.944 Y122.235 E2.3710
G1 X128.952 Y122.232 E2.3712
G1 X129.123 Y122.179 E2.3748
G1 X129.131 Y122.176 E2.3749
G1 X130.536 Y121.863 E2.4037
G1 X130.545 Y121.861 E2.4038
G1 X130.728 Y121.837 E2.4075
G1 X130.737 Y121.836 E2.4077
G1 X132.187 Y121.772 E2.4367
G1 X132.195 Y121.772 E2.4368
G1 X132.357 Y121.777 E2.4401
G1 X132.365 Y121.778 E2.4402
G1 X133.664 Y121.922 E2.4663
G1 X133.668 Y121.923 E2.4664
G1 X133.758 Y121.937 E2.4682
G1 X133.762 Y121.938 E2.4683
G1 X134.358 Y122.057 E2.4804
G1 X134.366 Y122.059 E2.4806
G1 X134.520 Y122.102 E2.4838
G1 X134.527 Y122.104 E2.4839
G1 X135.934 Y122.617 E2.5138
G1 X136.002 Y122.695 E2.5159
G1 X136.478 Y124.974 E2.5623
G1 X136.448 Y125.073 E2.5644
G1 X134.181 Y127.237 E2.6269
G1 X134.158 Y127.259 E2.6275
G1 X132.402 Y128.841 E2.6747
G1 X133.436 Y130.002 E2.7057
G1 X134.634 Y131.321 E2.7412
G1 X138.830 Y127.658 E2.8524
G1 X138.939 Y127.639 E2.8546
G1 X141.287 Y128.531 E2.9047
G1 X141.355 Y128.618 E2.9069
G1 X141.619 Y130.696 E2.9487
G1 X141.620 Y130.703 E2.9489
G1 X141.628 Y130.851 E2.9518
G1 X141.628 Y130.858 E2.9520
G1 X141.603 Y132.606 E2.9869
G1 X141.602 Y132.617 E2.9871
G1 X141.574 Y132.845 E2.9917
G1 X141.572 Y132.856 E2.9919
G1 X141.156 Y134.613 E3.0279
G1 X141.153 Y134.623 E3.0281
G1 X141.081 Y134.829 E3.0325
G1 X141.077 Y134.839 E3.0327
G1 X140.302 Y136.482 E3.0690
G1 X140.297 Y136.492 E3.0692
G1 X140.183 Y136.680 E3.0736
G1 X140.177 Y136.689 E3.0738
G1 X139.079 Y138.132 E3.1100
G1 X139.073 Y138.139 E3.1101
G1 X138.941 Y138.283 E3.1140
G1 X138.934 Y138.290 E3.1142
G1 X137.979 Y139.153 E3.1399
G1 X137.973 Y139.158 E3.1401
G1 X137.849 Y139.254 E3.1432
G1 X137.843 Y139.258 E3.1434
G1 X136.778 Y139.964 E3.1689
G1 X136.772 Y139.968 E3.1690
G1 X136.639 Y140.043 E3.1720
G1 X136.633 Y140.046 E3.1722
G1 X135.467 Y140.596 E3.1979
G1 X135.461 Y140.599 E3.1980
G1 X135.321 Y140.653 E3.2010
G1 X135.314 Y140.655 E3.2012
G1 X134.057 Y141.041 E3.2274
G1 X134.049 Y141.043 E3.2276
G1 X133.874 Y141.081 E3.2312
G1 X133.866 Y141.082 E3.2313
G1 X133.044 Y141.188 E3.2479
G1 X133.040 Y141.188 E3.2479
G1 X132.940 Y141.196 E3.2499
G1 X132.936 Y141.196 E3.2500
G1 X131.961 Y141.228 E3.2695
G1 X131.958 Y141.228 E3.2696
G1 X131.889 Y141.228 E3.2709
G1 X131.885 Y141.228 E3.2710
G1 X130.902 Y141.196 E3.2906
G1 X130.896 Y141.195 E3.2908
G1 X130.761 Y141.182 E3.2935
G1 X130.754 Y141.181 E3.2936
G1 X130.469 Y141.135 E3.2994
G1 X129.582 Y141.885 E3.3225
G1 X125.673 Y145.319 E3.4264
G1 X125.678 Y145.335 E3.4267
G1 X125.679 Y145.340 E3.4268
G1 X125.706 Y145.450 E3.4291
G1 X125.707 Y145.455 E3.4292
G1 X126.057 Y147.338 E3.4674
G1 X126.058 Y147.343 E3.4675
G1 X126.073 Y147.454 E3.4697
G1 X126.073 Y147.459 E3.4698
G1 X126.227 Y149.429 E3.5093
G1 X126.227 Y149.434 E3.5094
G1 X126.230 Y149.539 E3.5115
G1 X126.230 Y149.544 E3.5116
G1 X126.186 Y151.525 E3.5511
G1 X126.186 Y151.531 E3.5512
G1 X126.178 Y151.640 E3.5534
G1 X126.177 Y151.645 E3.5535
G1 X125.932 Y153.570 E3.5922
G1 X125.931 Y153.576 E3.5924
G1 X125.909 Y153.695 E3.5948
G1 X125.908 Y153.700 E3.5949
G1 X125.431 Y155.639 E3.6347
G1 X125.429 Y155.644 E3.6348
G1 X125.394 Y155.758 E3.6372
G1 X125.392 Y155.763 E3.6373
G1 X125.251 Y156.146 E3.6455
G1 X130.341 Y160.612 E3.7806
G1 X130.672 Y160.548 E3.7873
G1 X130.680 Y160.546 E3.7875
G1 X130.853 Y160.527 E3.7910
G1 X130.861 Y160.527 E3.7911
G1 X132.002 Y160.494 E3.8139
G1 X132.005 Y160.494 E3.8140
G1 X132.067 Y160.494 E3.8152
G1 X132.070 Y160.495 E3.8153
G1 X133.224 Y160.530 E3.8383
G1 X133.232 Y160.531 E3.8385
G1 X133.403 Y160.550 E3.8419
G1 X133.411 Y160.551 E3.8421
G1 X134.297 Y160.726 E3.8601
G1 X134.304 Y160.727 E3.8602
G1 X134.442 Y160.765 E3.8631
G1 X134.448 Y160.767 E3.8632
G1 X135.653 Y161.180 E3.8886
G1 X135.659 Y161.182 E3.8888
G1 X135.793 Y161.239 E3.8917
G1 X135.800 Y161.242 E3.8918
G1 X136.911 Y161.806 E3.9167
G1 X136.917 Y161.809 E3.9168
G1 X137.045 Y161.885 E3.9198
G1 X137.050 Y161.889 E3.9199
G1 X138.057 Y162.593 E3.9444
G1 X138.062 Y162.597 E3.9446
G1 X138.178 Y162.692 E3.9476
G1 X138.184 Y162.696 E3.9477
G1 X139.072 Y163.529 E3.9720
G1 X139.077 Y163.534 E3.9721
G1 X139.180 Y163.645 E3.9751
G1 X139.184 Y163.650 E3.9753
G1 X139.943 Y164.599 E3.9995
G1 X139.947 Y164.605 E3.9997
G1 X140.033 Y164.730 E4.0027
G1 X140.037 Y164.736 E4.0028
G1 X140.654 Y165.789 E4.0272
G1 X140.658 Y165.795 E4.0273
G1 X140.725 Y165.931 E4.0304
G1 X140.727 Y165.938 E4.0305
G1 X141.193 Y167.081 E4.0552
G1 X141.195 Y167.088 E4.0553
G1 X141.242 Y167.231 E4.0583
G1 X141.244 Y167.238 E4.0584
G1 X141.547 Y168.460 E4.0836
G1 X141.549 Y168.467 E4.0837
G1 X141.574 Y168.616 E4.0867
G1 X141.575 Y168.623 E4.0869
G1 X141.653 Y169.407 E4.1026
G1 X141.654 Y169.411 E4.1027
G1 X141.658 Y169.492 E4.1043
G1 X141.659 Y169.496 E4.1044
G1 X141.678 Y170.394 E4.1223
G1 X141.678 Y170.397 E4.1224
G1 X141.677 Y170.461 E4.1236
G1 X141.677 Y170.464 E4.1237
G1 X141.643 Y171.322 E4.1408
G1 X141.642 Y171.331 E4.1410
G1 X141.621 Y171.503 E4.1445
G1 X141.619 Y171.512 E4.1446
G1 X141.335 Y172.877 E4.1725
G1 X141.290 Y172.943 E4.1741
G1 X139.829 Y173.894 E4.2089
G1 X139.751 Y173.909 E4.2104
G1 X138.564 Y173.655 E4.2347
G1 X138.543 Y173.648 E4.2351
G1 X138.111 Y173.447 E4.2446
G1 X138.092 Y173.435 E4.2451
G1 X137.228 Y172.761 E4.2669
G1 X137.225 Y172.759 E4.2670
G1 X137.176 Y172.719 E4.2683
G1 X137.174 Y172.717 E4.2683
G1 X134.724 Y170.555 E4.3335
G1 X132.839 Y172.646 E4.3897
G1 X132.452 Y173.095 E4.4015
G1 X136.364 Y176.630 E4.5067
G1 X136.397 Y176.733 E4.5089
G1 X135.859 Y179.118 E4.5577
G1 X135.786 Y179.197 E4.5598
G1 X134.120 Y179.698 E4.5946
G1 X134.113 Y179.700 E4.5947
G1 X133.958 Y179.734 E4.5979
G1 X133.950 Y179.735 E4.5980
G1 X132.849 Y179.891 E4.6202
G1 X132.845 Y179.892 E4.6203
G1 X132.761 Y179.900 E4.6220
G1 X132.757 Y179.900 E4.6221
G1 X131.913 Y179.952 E4.6389
G1 X131.906 Y179.952 E4.6391
G1 X131.760 Y179.950 E4.6420
G1 X131.753 Y179.950 E4.6421
G1 X130.904 Y179.883 E4.6591
G1 X130.899 Y179.882 E4.6592
G1 X130.805 Y179.871 E4.6611
G1 X130.800 Y179.870 E4.6612
G1 X129.752 Y179.690 E4.6824
G1 X129.746 Y179.689 E4.6826
G1 X129.614 Y179.657 E4.6853
G1 X129.607 Y179.656 E4.6854
G1 X128.549 Y179.329 E4.7075
G1 X128.540 Y179.326 E4.7077
G1 X128.357 Y179.250 E4.7117
G1 X128.348 Y179.246 E4.7118
G1 X126.494 Y178.262 E4.7537
G1 X126.483 Y178.256 E4.7540
G1 X126.270 Y178.107 E4.7592
G1 X126.261 Y178.099 E4.7594
G1 X124.701 Y176.690 E4.8014
G1 X124.695 Y176.683 E4.8015
G1 X124.562 Y176.539 E4.8054
G1 X124.556 Y176.532 E4.8056
G1 X123.885 Y175.649 E4.8278
G1 X123.881 Y175.644 E4.8279
G1 X123.808 Y175.533 E4.8306
G1 X123.804 Y175.527 E4.8307
G1 X123.264 Y174.591 E4.8523
G1 X123.261 Y174.586 E4.8524
G1 X123.206 Y174.474 E4.8549
G1 X123.203 Y174.469 E4.8550
G1 X122.795 Y173.517 E4.8756
G1 X122.793 Y173.511 E4.8758
G1 X122.749 Y173.389 E4.8784
G1 X122.747 Y173.383 E4.8785
G1 X122.473 Y172.430 E4.8983
G1 X122.471 Y172.424 E4.8984
G1 X122.442 Y172.287 E4.9012
G1 X122.440 Y172.280 E4.9013
G1 X122.293 Y171.288 E4.9214
G1 X122.293 Y171.282 E4.9215
G1 X122.282 Y171.161 E4.9239
G1 X122.282 Y171.155 E4.9240
G1 X122.249 Y170.110 E4.9449
G1 X122.249 Y170.107 E4.9449
G1 X122.249 Y170.078 E4.9455
G1 X118.971 Y167.175 E5.0329
G1 X118.955 Y167.160 E5.0333
G1 X117.500 Y165.818 E5.0728
G1 X117.432 Y165.857 E5.0743
G1 X117.427 Y165.859 E5.0745
G1 X115.910 Y166.604 E5.1082
G1 X115.905 Y166.607 E5.1083
G1 X115.789 Y166.655 E5.1108
G1 X115.784 Y166.657 E5.1109
G1 X114.191 Y167.216 E5.1446
G1 X114.185 Y167.218 E5.1447
G1 X114.067 Y167.251 E5.1472
G1 X114.061 Y167.253 E5.1473
G1 X112.396 Y167.626 E5.1814
G1 X112.390 Y167.627 E5.1815
G1 X112.277 Y167.646 E5.1838
G1 X112.271 Y167.647 E5.1839
G1 X111.439 Y167.739 E5.2006
G1 X111.435 Y167.740 E5.2007
