; G-Code generated by Simplify3D(R) Version 4.0.1
; Oct 7, 2018 at 9:35:35 AM
; Settings Summary
;   processName,Process1
;   applyToModels,Q-Tip_Holder_Cover
;   profileName,Anet A8-CommunauteFrancaise
;   profileVersion,2018-08-31 18:45:08
;   baseProfile,
;   printMaterial,ABS
;   printQuality,Medium
;   printExtruders,
;   extruderName,Primary Extruder
;   extruderToolheadNumber,0
;   extruderDiameter,0.4
;   extruderAutoWidth,0
;   extruderWidth,0.4
;   extrusionMultiplier,1
;   extruderUseRetract,1
;   extruderRetractionDistance,2
;   extruderExtraRestartDistance,-0.2
;   extruderRetractionZLift,0.2
;   extruderRetractionSpeed,3600
;   extruderUseCoasting,0
;   extruderCoastingDistance,0.2
;   extruderUseWipe,0
;   extruderWipeDistance,5
;   primaryExtruder,0
;   layerHeight,0.2
;   topSolidLayers,5
;   bottomSolidLayers,5
;   perimeterOutlines,4
;   printPerimetersInsideOut,1
;   startPointOption,2
;   startPointOriginX,0
;   startPointOriginY,500
;   sequentialIslands,0
;   spiralVaseMode,0
;   firstLayerHeightPercentage,100
;   firstLayerWidthPercentage,100
;   firstLayerUnderspeed,0.5
;   useRaft,0
;   raftExtruder,0
;   raftTopLayers,3
;   raftBaseLayers,2
;   raftOffset,3
;   raftSeparationDistance,0.14
;   raftTopInfill,100
;   aboveRaftSpeedMultiplier,0.3
;   useSkirt,1
;   skirtExtruder,0
;   skirtLayers,1
;   skirtOutlines,1
;   skirtOffset,2
;   usePrimePillar,0
;   primePillarExtruder,999
;   primePillarWidth,12
;   primePillarLocation,7
;   primePillarSpeedMultiplier,1
;   useOozeShield,0
;   oozeShieldExtruder,999
;   oozeShieldOffset,2
;   oozeShieldOutlines,1
;   oozeShieldSidewallShape,1
;   oozeShieldSidewallAngle,30
;   oozeShieldSpeedMultiplier,1
;   infillExtruder,0
;   internalInfillPattern,Rectilinear
;   externalInfillPattern,Rectilinear
;   infillPercentage,30
;   outlineOverlapPercentage,20
;   infillExtrusionWidthPercentage,100
;   minInfillLength,2
;   infillLayerInterval,1
;   internalInfillAngles,90,0
;   overlapInternalInfillAngles,0
;   externalInfillAngles,90,0
;   generateSupport,1
;   supportExtruder,0
;   supportInfillPercentage,30
;   supportExtraInflation,0
;   supportBaseLayers,0
;   denseSupportExtruder,0
;   denseSupportLayers,0
;   denseSupportInfillPercentage,60
;   supportLayerInterval,1
;   supportHorizontalPartOffset,0.3
;   supportUpperSeparationLayers,1
;   supportLowerSeparationLayers,1
;   supportType,0
;   supportGridSpacing,3
;   maxOverhangAngle,60
;   supportAngles,0
;   temperatureName,Primary Extruder,Heated Bed
;   temperatureNumber,0,0
;   temperatureSetpointCount,1,1
;   temperatureSetpointLayers,1,1
;   temperatureSetpointTemperatures,230,90
;   temperatureStabilizeAtStartup,1,1
;   temperatureHeatedBed,0,1
;   temperatureRelayBetweenLayers,0,0
;   temperatureRelayBetweenLoops,0,0
;   fanLayers,1
;   fanSpeeds,0
;   blipFanToFullPower,0
;   adjustSpeedForCooling,1
;   minSpeedLayerTime,15
;   minCoolingSpeedSlowdown,20
;   increaseFanForCooling,0
;   minFanLayerTime,45
;   maxCoolingFanSpeed,100
;   increaseFanForBridging,0
;   bridgingFanSpeed,100
;   use5D,1
;   relativeEdistances,0
;   allowEaxisZeroing,1
;   independentExtruderAxes,0
;   includeM10123,0
;   stickySupport,1
;   applyToolheadOffsets,0
;   gcodeXoffset,0
;   gcodeYoffset,0
;   gcodeZoffset,0
;   overrideMachineDefinition,1
;   machineTypeOverride,0
;   strokeXoverride,220
;   strokeYoverride,220
;   strokeZoverride,240
;   originOffsetXoverride,0
;   originOffsetYoverride,0
;   originOffsetZoverride,0
;   homeXdirOverride,-1
;   homeYdirOverride,-1
;   homeZdirOverride,-1
;   flipXoverride,1
;   flipYoverride,-1
;   flipZoverride,1
;   toolheadOffsets,0,0|0,0|0,0|0,0|0,0|0,0
;   overrideFirmwareConfiguration,1
;   firmwareTypeOverride,RepRap (Marlin/Repetier/Sprinter)
;   GPXconfigOverride,r2
;   baudRateOverride,115200
;   overridePrinterModels,1
;   printerModelsOverride
;   startingGcode,G28 ; home all axes,;G29,G1 X0 Y10 Z0.2 F3000 ; get ready to prime,G92 E0 ; reset extrusion distance,G1 X90 E20 Z-0.60 F600 ; prime nozzle,M117 Impression en cours  !!
;   layerChangeGcode,
;   retractionGcode,
;   toolChangeGcode,
;   endingGcode,M104 S0 ; turn off extruder,M140 S0 ; turn off bed,G1 X0 Y200 F1000 ; prepare for part removal,M84 ; disable motors,M117 c'est fini !!
;   exportFileFormat,gcode
;   celebration,0
;   celebrationSong,Star Wars
;   postProcessing,|;gcode:||; Use Simplify3D Gcode comments to display info for each layer||;{REPLACE "; layer" "M117 Layer"} ; Replace Simplify3D layer comments with display commands|;{REPLACE " Z = " " Z="} ; Delete spaces for more display space||; For filament change at the beginning of a particular layer:||; {REPLACE "\nM117 Layer <#>, Z=" "\nM600\nM117 Layer <#>, Z="}||; Forward toolpath file to Octoprint when saved:|;curl -k -H "X-Api-Key:95CF4E9979984CF1ACDD88DF2F202262" -F "select=true" -F "print=true" -F "file=@[output_filepath]" "http://192.168.1.126/api/files/local"
;   defaultSpeed,2400
;   outlineUnderspeed,0.5
;   solidInfillUnderspeed,0.8
;   supportUnderspeed,0.8
;   rapidXYspeed,3000
;   rapidZspeed,1002
;   minBridgingArea,50
;   bridgingExtraInflation,0
;   bridgingExtrusionMultiplier,1
;   bridgingSpeedMultiplier,1
;   useFixedBridgingAngle,0
;   fixedBridgingAngle,0
;   applyBridgingToPerimeters,0
;   filamentDiameters,1.75|1.75|1.75|1.75|1.75|1.75
;   filamentPricesPerKg,16|46|46|46|46|46
;   filamentDensities,1.25|1.25|1.25|1.25|1.25|1.25
;   useMinPrintHeight,0
;   minPrintHeight,0
;   useMaxPrintHeight,0
;   maxPrintHeight,0
;   useDiaphragm,0
;   diaphragmLayerInterval,20
;   robustSlicing,1
;   mergeAllIntoSolid,0
;   onlyRetractWhenCrossingOutline,1
;   retractBetweenLayers,1
;   useRetractionMinTravel,0
;   retractionMinTravel,3
;   retractWhileWiping,0
;   onlyWipeOutlines,1
;   avoidCrossingOutline,0
;   maxMovementDetourFactor,3
;   toolChangeRetractionDistance,12
;   toolChangeExtraRestartDistance,-0.5
;   toolChangeRetractionSpeed,600
;   externalThinWallType,0
;   internalThinWallType,2
;   thinWallAllowedOverlapPercentage,10
;   singleExtrusionMinLength,1
;   singleExtrusionMinPrintingWidthPercentage,50
;   singleExtrusionMaxPrintingWidthPercentage,200
;   singleExtrusionEndpointExtension,0.2
;   horizontalSizeCompensation,0
G90
M82
M106 S0
M140 S90
M190 S90
M104 S230 T0
M109 S230 T0
G28 ; home all axes
;G29
G1 X0 Y10 Z0.2 F3000 ; get ready to prime
G92 E0 ; reset extrusion distance
G1 X90 E20 Z-0.60 F600 ; prime nozzle
M117 Impression en cours  !!
G92 E0
G1 E-2.0000 F3600
G1 Z0.400 F1002
; process Process1
; layer 1, Z = 0.200
T0
; tool H0.200 W0.400
; skirt
G1 X78.838 Y80.610 F3000
G1 Z0.200 F1002
G1 E-0.2000 F1080
G92 E0
G1 X78.912 Y80.580 E0.0026 F1200
G1 X80.580 Y80.580 E0.0581
G1 X80.580 Y78.912 E0.1136
G1 X80.610 Y78.838 E0.1163
G1 X81.838 Y77.610 E0.1740
G1 X81.912 Y77.580 E0.1767
G1 X83.580 Y77.580 E0.2321
G1 X83.580 Y75.912 E0.2876
G1 X83.610 Y75.838 E0.2903
G1 X84.838 Y74.610 E0.3480
G1 X84.912 Y74.580 E0.3507
G1 X89.580 Y74.580 E0.5059
G1 X89.580 Y72.912 E0.5614
G1 X89.610 Y72.838 E0.5641
G1 X90.838 Y71.610 E0.6218
G1 X90.912 Y71.580 E0.6245
G1 X95.580 Y71.580 E0.7797
G1 X95.580 Y69.912 E0.8352
G1 X95.610 Y69.838 E0.8379
G1 X96.838 Y68.610 E0.8956
G1 X96.912 Y68.580 E0.8983
G1 X123.088 Y68.580 E1.7689
G1 X123.162 Y68.610 E1.7715
G1 X124.390 Y69.838 E1.8293
G1 X124.420 Y69.912 E1.8319
G1 X124.420 Y71.580 E1.8874
G1 X129.088 Y71.580 E2.0427
G1 X129.162 Y71.610 E2.0453
G1 X130.390 Y72.838 E2.1031
G1 X130.420 Y72.912 E2.1057
G1 X130.420 Y74.580 E2.1612
G1 X135.088 Y74.580 E2.3165
G1 X135.162 Y74.610 E2.3191
G1 X136.390 Y75.838 E2.3769
G1 X136.420 Y75.912 E2.3795
G1 X136.420 Y77.580 E2.4350
G1 X138.088 Y77.580 E2.4905
G1 X138.162 Y77.610 E2.4932
G1 X139.390 Y78.838 E2.5509
G1 X139.420 Y78.912 E2.5536
G1 X139.420 Y80.580 E2.6090
G1 X141.088 Y80.580 E2.6645
G1 X141.162 Y80.610 E2.6672
G1 X142.390 Y81.838 E2.7249
G1 X142.420 Y81.912 E2.7276
G1 X142.420 Y83.580 E2.7831
G1 X144.088 Y83.580 E2.8385
G1 X144.162 Y83.610 E2.8412
G1 X145.390 Y84.838 E2.8989
G1 X145.420 Y84.912 E2.9016
G1 X145.420 Y89.580 E3.0569
G1 X147.088 Y89.580 E3.1123
G1 X147.162 Y89.610 E3.1150
G1 X148.390 Y90.838 E3.1727
G1 X148.420 Y90.912 E3.1754
G1 X148.420 Y95.580 E3.3307
G1 X150.088 Y95.580 E3.3861
G1 X150.162 Y95.610 E3.3888
G1 X151.390 Y96.838 E3.4465
G1 X151.420 Y96.912 E3.4492
G1 X151.420 Y123.088 E4.3198
G1 X151.390 Y123.162 E4.3225
G1 X150.162 Y124.390 E4.3802
G1 X150.088 Y124.420 E4.3829
G1 X148.420 Y124.420 E4.4383
G1 X148.420 Y129.088 E4.5936
G1 X148.390 Y129.162 E4.5963
G1 X147.162 Y130.390 E4.6540
G1 X147.088 Y130.420 E4.6567
G1 X145.420 Y130.420 E4.7121
G1 X145.420 Y135.088 E4.8674
G1 X145.390 Y135.162 E4.8701
G1 X144.162 Y136.390 E4.9278
G1 X144.088 Y136.420 E4.9305
G1 X142.420 Y136.420 E4.9859
G1 X142.420 Y138.088 E5.0414
G1 X142.390 Y138.162 E5.0441
G1 X141.162 Y139.390 E5.1018
G1 X141.088 Y139.420 E5.1045
G1 X139.420 Y139.420 E5.1600
G1 X139.420 Y141.088 E5.2154
G1 X139.390 Y141.162 E5.2181
G1 X138.162 Y142.390 E5.2758
G1 X138.088 Y142.420 E5.2785
G1 X136.420 Y142.420 E5.3340
G1 X136.420 Y144.088 E5.3895
G1 X136.390 Y144.162 E5.3921
G1 X135.162 Y145.390 E5.4499
G1 X135.088 Y145.420 E5.4525
G1 X130.420 Y145.420 E5.6078
G1 X130.420 Y147.088 E5.6633
G1 X130.390 Y147.162 E5.6659
G1 X129.162 Y148.390 E5.7237
G1 X129.088 Y148.420 E5.7263
G1 X124.420 Y148.420 E5.8816
G1 X124.420 Y150.088 E5.9370
G1 X124.390 Y150.162 E5.9397
G1 X123.162 Y151.390 E5.9974
G1 X123.088 Y151.420 E6.0001
G1 X96.912 Y151.420 E6.8707
G1 X96.838 Y151.390 E6.8734
G1 X95.610 Y150.162 E6.9311
G1 X95.580 Y150.088 E6.9338
G1 X95.580 Y148.420 E6.9893
G1 X90.912 Y148.420 E7.1445
G1 X90.838 Y148.390 E7.1472
G1 X89.610 Y147.162 E7.2049
G1 X89.580 Y147.088 E7.2076
G1 X89.580 Y145.420 E7.2631
G1 X84.912 Y145.420 E7.4183
G1 X84.838 Y145.390 E7.4210
G1 X83.610 Y144.162 E7.4787
G1 X83.580 Y144.088 E7.4814
G1 X83.580 Y142.420 E7.5368
G1 X81.912 Y142.420 E7.5923
G1 X81.838 Y142.390 E7.5950
G1 X80.610 Y141.162 E7.6527
G1 X80.580 Y141.088 E7.6554
G1 X80.580 Y139.420 E7.7109
G1 X78.912 Y139.420 E7.7663
G1 X78.838 Y139.390 E7.7690
G1 X77.610 Y138.162 E7.8267
G1 X77.580 Y138.088 E7.8294
G1 X77.580 Y136.420 E7.8849
G1 X75.912 Y136.420 E7.9404
G1 X75.838 Y136.390 E7.9430
G1 X74.610 Y135.162 E8.0008
G1 X74.580 Y135.088 E8.0034
G1 X74.580 Y130.420 E8.1587
G1 X72.912 Y130.420 E8.2142
G1 X72.838 Y130.390 E8.2168
G1 X71.610 Y129.162 E8.2746
G1 X71.580 Y129.088 E8.2772
G1 X71.580 Y124.420 E8.4325
G1 X69.912 Y124.420 E8.4880
G1 X69.838 Y124.390 E8.4906
G1 X68.610 Y123.162 E8.5484
G1 X68.580 Y123.088 E8.5510
G1 X68.580 Y96.912 E9.4216
G1 X68.610 Y96.838 E9.4243
G1 X69.838 Y95.610 E9.4820
G1 X69.912 Y95.580 E9.4847
G1 X71.580 Y95.580 E9.5402
G1 X71.580 Y90.912 E9.6954
G1 X71.610 Y90.838 E9.6981
G1 X72.838 Y89.610 E9.7558
G1 X72.912 Y89.580 E9.7585
G1 X74.580 Y89.580 E9.8140
G1 X74.580 Y84.912 E9.9692
G1 X74.610 Y84.838 E9.9719
G1 X75.838 Y83.610 E10.0296
G1 X75.912 Y83.580 E10.0323
G1 X77.580 Y83.580 E10.0878
G1 X77.580 Y81.912 E10.1432
G1 X77.610 Y81.838 E10.1459
G1 X78.838 Y80.610 E10.2036
G92 E0
G1 E-2.0000 F3600
G1 Z0.400 F1002
; inner perimeter
G1 X83.582 Y85.837 F3000
G1 Z0.200 F1002
G1 E-0.2000 F3600
G92 E0
G1 X84.451 Y84.920 E0.0420 F900
G1 X85.352 Y84.034 E0.0841
G1 X86.284 Y83.180 E0.1261
G1 X87.245 Y82.360 E0.1681
G1 X88.235 Y81.574 E0.2101
G1 X89.252 Y80.824 E0.2522
G1 X90.294 Y80.110 E0.2942
G1 X91.361 Y79.433 E0.3362
G1 X92.452 Y78.795 E0.3783
G1 X93.564 Y78.195 E0.4203
G1 X94.697 Y77.635 E0.4623
G1 X95.848 Y77.115 E0.5043
G1 X97.018 Y76.636 E0.5464
G1 X98.203 Y76.199 E0.5884
G1 X99.404 Y75.804 E0.6304
G1 X100.617 Y75.451 E0.6724
G1 X101.842 Y75.142 E0.7145
G1 X103.077 Y74.875 E0.7565
G1 X104.321 Y74.653 E0.7985
G1 X105.572 Y74.475 E0.8406
G1 X106.829 Y74.341 E0.8826
G1 X108.089 Y74.251 E0.9246
G1 X109.352 Y74.206 E0.9666
G1 X110.616 Y74.206 E1.0087
G1 X111.878 Y74.250 E1.0507
G1 X113.139 Y74.338 E1.0927
G1 X114.395 Y74.472 E1.1348
G1 X115.647 Y74.649 E1.1768
G1 X116.891 Y74.870 E1.2188
G1 X118.126 Y75.135 E1.2608
G1 X119.352 Y75.444 E1.3029
G1 X120.565 Y75.796 E1.3449
G1 X121.766 Y76.190 E1.3869
G1 X122.952 Y76.626 E1.4290
G1 X124.122 Y77.104 E1.4710
G1 X125.274 Y77.623 E1.5130
G1 X126.406 Y78.183 E1.5550
G1 X127.519 Y78.782 E1.5971
G1 X128.610 Y79.419 E1.6391
G1 X129.678 Y80.095 E1.6811
G1 X130.721 Y80.808 E1.7231
G1 X131.738 Y81.558 E1.7652
G1 X132.729 Y82.343 E1.8072
G1 X133.690 Y83.162 E1.8492
G1 X134.623 Y84.015 E1.8913
G1 X135.524 Y84.901 E1.9333
G1 X136.394 Y85.817 E1.9753
G1 X137.231 Y86.764 E2.0174
G1 X138.034 Y87.739 E2.0594
G1 X138.802 Y88.743 E2.1014
G1 X139.535 Y89.773 E2.1434
G1 X140.230 Y90.828 E2.1855
G1 X140.888 Y91.907 E2.2275
G1 X141.507 Y93.008 E2.2695
G1 X142.087 Y94.130 E2.3115
G1 X142.627 Y95.273 E2.3536
G1 X143.127 Y96.434 E2.3956
G1 X143.585 Y97.611 E2.4376
G1 X144.001 Y98.804 E2.4797
G1 X144.375 Y100.012 E2.5217
G1 X144.706 Y101.231 E2.5637
G1 X144.994 Y102.461 E2.6057
G1 X145.238 Y103.701 E2.6478
G1 X145.439 Y104.949 E2.6898
G1 X145.595 Y106.203 E2.7318
G1 X145.707 Y107.461 E2.7739
G1 X145.775 Y108.737 E2.8163
G1 X145.797 Y110.000 E2.8584
G1 X145.775 Y111.263 E2.9004
G1 X145.708 Y112.525 E2.9424
G1 X145.598 Y113.771 E2.9840
G1 X145.442 Y115.025 E3.0260
G1 X145.243 Y116.273 E3.0681
G1 X145.000 Y117.513 E3.1101
G1 X144.713 Y118.743 E3.1521
G1 X144.383 Y119.963 E3.1941
G1 X144.009 Y121.170 E3.2362
G1 X143.594 Y122.364 E3.2782
G1 X143.137 Y123.541 E3.3202
G1 X142.638 Y124.703 E3.3623
G1 X142.099 Y125.845 E3.4043
G1 X141.520 Y126.969 E3.4463
G1 X140.901 Y128.070 E3.4883
G1 X140.244 Y129.150 E3.5304
G1 X139.550 Y130.205 E3.5724
G1 X138.818 Y131.236 E3.6144
G1 X138.051 Y132.240 E3.6565
G1 X137.249 Y133.216 E3.6985
G1 X136.412 Y134.163 E3.7405
G1 X135.543 Y135.080 E3.7825
G1 X134.642 Y135.966 E3.8246
G1 X133.710 Y136.820 E3.8666
G1 X132.749 Y137.640 E3.9086
G1 X131.759 Y138.426 E3.9507
G1 X130.743 Y139.176 E3.9927
G1 X129.700 Y139.890 E4.0347
G1 X128.633 Y140.567 E4.0767
G1 X127.543 Y141.205 E4.1188
G1 X126.430 Y141.805 E4.1608
G1 X125.298 Y142.365 E4.2028
G1 X124.146 Y142.885 E4.2448
G1 X122.977 Y143.364 E4.2869
G1 X121.791 Y143.801 E4.3289
G1 X120.591 Y144.196 E4.3709
G1 X119.377 Y144.549 E4.4130
G1 X118.152 Y144.858 E4.4550
G1 X116.917 Y145.125 E4.4970
G1 X115.673 Y145.347 E4.5390
G1 X114.422 Y145.525 E4.5811
G1 X113.166 Y145.659 E4.6231
G1 X111.905 Y145.749 E4.6651
G1 X110.642 Y145.794 E4.7072
G1 X109.378 Y145.794 E4.7492
G1 X108.116 Y145.750 E4.7912
G1 X106.855 Y145.662 E4.8332
G1 X105.599 Y145.528 E4.8753
G1 X104.347 Y145.351 E4.9173
G1 X103.104 Y145.130 E4.9593
G1 X101.868 Y144.864 E5.0014
G1 X100.643 Y144.556 E5.0434
G1 X99.429 Y144.204 E5.0854
G1 X98.228 Y143.810 E5.1274
G1 X97.042 Y143.373 E5.1695
G1 X95.873 Y142.896 E5.2115
G1 X94.721 Y142.377 E5.2535
G1 X93.588 Y141.817 E5.2956
G1 X92.475 Y141.218 E5.3376
G1 X91.384 Y140.581 E5.3796
G1 X90.316 Y139.905 E5.4216
G1 X89.274 Y139.192 E5.4637
G1 X88.256 Y138.442 E5.5057
G1 X87.266 Y137.657 E5.5477
G1 X86.304 Y136.838 E5.5897
G1 X85.372 Y135.984 E5.6318
G1 X84.470 Y135.099 E5.6738
G1 X83.600 Y134.183 E5.7158
G1 X82.763 Y133.236 E5.7579
G1 X81.960 Y132.260 E5.7999
G1 X81.192 Y131.257 E5.8419
G1 X80.460 Y130.227 E5.8839
G1 X79.764 Y129.172 E5.9260
G1 X79.106 Y128.093 E5.9680
G1 X78.487 Y126.992 E6.0100
G1 X77.907 Y125.869 E6.0521
G1 X77.367 Y124.727 E6.0941
G1 X76.867 Y123.566 E6.1361
G1 X76.409 Y122.389 E6.1781
G1 X75.993 Y121.196 E6.2202
G1 X75.619 Y119.988 E6.2622
G1 X75.288 Y118.769 E6.3042
G1 X75.000 Y117.539 E6.3462
G1 X74.756 Y116.299 E6.3883
G1 X74.556 Y115.051 E6.4303
G1 X74.399 Y113.797 E6.4723
G1 X74.288 Y112.538 E6.5144
G1 X74.220 Y111.277 E6.5564
G1 X74.197 Y110.013 E6.5984
G1 X74.219 Y108.750 E6.6404
G1 X74.286 Y107.488 E6.6825
G1 X74.397 Y106.229 E6.7245
G1 X74.552 Y104.975 E6.7665
G1 X74.751 Y103.727 E6.8086
G1 X74.995 Y102.487 E6.8506
G1 X75.282 Y101.257 E6.8926
G1 X75.612 Y100.037 E6.9346
G1 X75.985 Y98.830 E6.9767
G1 X76.400 Y97.636 E7.0187
G1 X76.857 Y96.458 E7.0607
G1 X77.356 Y95.297 E7.1028
G1 X77.901 Y94.142 E7.1452
G1 X78.474 Y93.031 E7.1868
